public/images/icons/thumbsUp.svg

<svg fill="none" height="27" viewBox="0 0 27 27" width="27" xmlns="http://www.w3.org/2000/svg"><path d="m7.88505 25.3869h-3.53103c-.62433 0-1.22308-.2481-1.66454-.6895-.44147-.4415-.68948-1.0402-.68948-1.6646v-8.239c0-.6243.24801-1.2231.68948-1.6646.44146-.4414 1.04021-.6894 1.66454-.6894h3.53103m8.23905-2.3541v-4.70799c0-.93649-.372-1.83462-1.0342-2.49682-.6622-.66219-1.5603-1.03421-2.4968-1.03421l-4.70805 10.59312v12.9471h13.27665c.5677.0064 1.1186-.1926 1.5512-.5603s.7177-.8793.8028-1.4407l1.6243-10.593c.0512-.3374.0285-.6819-.0667-1.0096-.0951-.3277-.2604-.6308-.4843-.8883-.2239-.2576-.5012-.4633-.8125-.603-.3113-.1398-.6493-.2101-.9905-.2063z" stroke="#fff" stroke-linecap="round" stroke-linejoin="round" stroke-width="2.35402"/></svg>

<svg width="27" height="27" viewBox="0 0 27 27" fill="none" xmlns="http://www.w3.org/2000/svg">
<path d="M7.88505 25.3869H4.35402C3.72969 25.3869 3.13094 25.1388 2.68948 24.6974C2.24801 24.2559 2 23.6572 2 23.0328V14.7938C2 14.1695 2.24801 13.5707 2.68948 13.1292C3.13094 12.6878 3.72969 12.4398 4.35402 12.4398H7.88505M16.1241 10.0857V5.37771C16.1241 4.44122 15.7521 3.54309 15.0899 2.88089C14.4277 2.2187 13.5296 1.84668 12.5931 1.84668L7.88505 12.4398V25.3869H21.1617C21.7294 25.3933 22.2803 25.1943 22.7129 24.8266C23.1455 24.4589 23.4306 23.9473 23.5157 23.3859L25.14 12.7929C25.1912 12.4555 25.1685 12.111 25.0733 11.7833C24.9782 11.4556 24.8129 11.1525 24.589 10.895C24.3651 10.6374 24.0878 10.4317 23.7765 10.292C23.4652 10.1522 23.1272 10.0819 22.786 10.0857H16.1241Z" stroke="white" stroke-width="2.35402" stroke-linecap="round" stroke-linejoin="round"/>
</svg>
